Newaita/actions/32/media-playlist-shuffle.svg

<svg height="32" viewBox="0 0 32 32" width="32" xmlns="http://www.w3.org/2000/svg"><g fill="#424242"><path d="m8.601562 2.894531-4.632812 6.617188h3.3125c0 2.136719 1.25 3.804687 2.789062 4.988281.496094.386719 1.027344.738281 1.582032 1.066406.921875-.554687 1.859375-1.035156 2.761718-1.488281-1.050781-.546875-2-1.09375-2.734374-1.660156-1.195313-.921875-1.761719-1.734375-1.761719-2.90625h3.3125zm8.089844 12.992188c-.273437.132812-.542968.269531-.816406.40625-.3125.15625-.621094.3125-.929688.472656.308594-.160156.617188-.316406.929688-.472656.273438-.136719.542969-.273438.816406-.40625zm3.378906 1.21875c-.925781.515625-1.863281.96875-2.765624 1.417969 1.03125.578124 1.96875 1.179687 2.695312 1.832031 1.1875 1.058593 1.835938 2.128906 1.835938 3.710937h-.003907v4.628906c0 .367188.292969.660157.660157.660157h1.324218c.363282 0 .660156-.292969.660156-.660157v-4.628906h-.007812c0-2.386718-1.167969-4.296875-2.710938-5.675781-.527343-.46875-1.09375-.894531-1.6875-1.285156zm0 0"/><path d="m23.152344 2.894531-4.628906 6.617188h3.3125c0 1.171875-.570313 1.984375-1.761719 2.90625-1.191407.921875-2.953125 1.78125-4.785157 2.695312-1.835937.917969-3.75 1.898438-5.292968 3.277344-1.542969 1.378906-2.714844 3.289063-2.714844 5.675781h-.003906v4.628906c0 .367188.292968.660157.660156.660157h1.324219c.367187 0 .660156-.292969.660156-.660157v-4.628906h-.003906c0-1.582031.648437-2.652344 1.832031-3.710937 1.1875-1.058594 2.910156-1.984375 4.714844-2.886719 1.804687-.902344 3.683594-1.78125 5.21875-2.96875 1.535156-1.183594 2.785156-2.851562 2.785156-4.988281h3.316406zm0 0"/></g></svg>

<?xml version="1.0" encoding="UTF-8"?>
<svg xmlns="http://www.w3.org/2000/svg" xmlns:xlink="http://www.w3.org/1999/xlink" width="32px" height="32px" viewBox="0 0 32 32" version="1.1">
<g id="surface1">
<path style=" stroke:none;fill-rule:nonzero;fill:rgb(25.882354%,25.882354%,25.882354%);fill-opacity:1;" d="M 8.601562 2.894531 L 3.96875 9.511719 L 7.28125 9.511719 C 7.28125 11.648438 8.53125 13.316406 10.070312 14.5 C 10.566406 14.886719 11.097656 15.238281 11.652344 15.566406 C 12.574219 15.011719 13.511719 14.53125 14.414062 14.078125 C 13.363281 13.53125 12.414062 12.984375 11.679688 12.417969 C 10.484375 11.496094 9.917969 10.683594 9.917969 9.511719 L 13.230469 9.511719 Z M 16.691406 15.886719 C 16.417969 16.019531 16.148438 16.15625 15.875 16.292969 C 15.5625 16.449219 15.253906 16.605469 14.945312 16.765625 C 15.253906 16.605469 15.5625 16.449219 15.875 16.292969 C 16.148438 16.15625 16.417969 16.019531 16.691406 15.886719 Z M 20.070312 17.105469 C 19.144531 17.621094 18.207031 18.074219 17.304688 18.523438 C 18.335938 19.101562 19.273438 19.703125 20 20.355469 C 21.1875 21.414062 21.835938 22.484375 21.835938 24.066406 L 21.832031 24.066406 L 21.832031 28.695312 C 21.832031 29.0625 22.125 29.355469 22.492188 29.355469 L 23.816406 29.355469 C 24.179688 29.355469 24.476562 29.0625 24.476562 28.695312 L 24.476562 24.066406 L 24.46875 24.066406 C 24.46875 21.679688 23.300781 19.769531 21.757812 18.390625 C 21.230469 17.921875 20.664062 17.496094 20.070312 17.105469 Z M 20.070312 17.105469 "/>
<path style=" stroke:none;fill-rule:nonzero;fill:rgb(25.882354%,25.882354%,25.882354%);fill-opacity:1;" d="M 23.152344 2.894531 L 18.523438 9.511719 L 21.835938 9.511719 C 21.835938 10.683594 21.265625 11.496094 20.074219 12.417969 C 18.882812 13.339844 17.121094 14.199219 15.289062 15.113281 C 13.453125 16.03125 11.539062 17.011719 9.996094 18.390625 C 8.453125 19.769531 7.28125 21.679688 7.28125 24.066406 L 7.277344 24.066406 L 7.277344 28.695312 C 7.277344 29.0625 7.570312 29.355469 7.9375 29.355469 L 9.261719 29.355469 C 9.628906 29.355469 9.921875 29.0625 9.921875 28.695312 L 9.921875 24.066406 L 9.917969 24.066406 C 9.917969 22.484375 10.566406 21.414062 11.75 20.355469 C 12.9375 19.296875 14.660156 18.371094 16.464844 17.46875 C 18.269531 16.566406 20.148438 15.6875 21.683594 14.5 C 23.21875 13.316406 24.46875 11.648438 24.46875 9.511719 L 27.785156 9.511719 Z M 23.152344 2.894531 "/>
</g>
</svg>
